cached_logos/open-blas.svg

<svg xmlns="http://www.w3.org/2000/svg" role="img" xmlns:xlink="http://www.w3.org/1999/xlink" viewBox="128.80 -1766.20 6042.40 2827.40"><title>OpenBLAS logo</title><defs><path id="a" d="M247-949v2399h269v-62H309V-887h207v-62H247z"/><path id="b" d="M740 435q0-115-64-222T511 42 304-22q-97 0-166 57T51 201q-1 8-1 43 0 102 48 194t129 163q124 103 249 103 38 0 48-1 97-14 156-86t60-182zm-103 41q0 89-46 139t-115 50q-80 0-154-60-80-63-122-177t-43-212q0-90 43-143t114-54q90 0 171 79t123 215q29 95 29 163z"/><path id="c" d="M23 287q1 3 2 8t5 22 10 31 15 33 20 30 26 22 33 9q75 0 96-64l10 9q62 55 118 55 65 0 102-47t37-114q0-108-76-199T249-10q-22 0-39 6-11 5-23 15t-19 17l-7 8q-1-1-22-87t-21-87q0-6 8-7t37-3h25q6-7 6-9t-3-18q-3-12-6-15t-13-4h-11q-9 0-34 1t-62 1q-70 0-89-2h-8q-7 7-7 11 2 27 13 35h20q34 1 39 12 3 6 61 239t61 247q1 5 1 14 0 41-25 41-22 0-37-28t-23-61-12-36q-2-2-16-2H29q-6 6-6 9zm155-185q22-76 74-76 30 0 58 23t46 58q18 34 36 108t19 110v6q0 74-61 74-11 0-22-3t-22-9-20-13-17-15-15-15-11-14-8-10l-3-4q0-1-3-14t-11-44-14-52q-26-106-26-110z"/><path id="d" d="M231 637q-27 0-32 1t-5 11q0 27 11 33 1 1 130 1 259 0 273-2 63-10 105-45t43-92q0-64-58-115t-133-69l-10-3q64-9 105-46t42-92q0-73-72-141T453 1q-7-1-211-1Q42 0 39 2q-4 3-4 8 0 7 2 14 5 19 10 21 4 1 15 1h6q27 0 60 3 14 3 19 12 3 4 72 278t69 289q0 7-57 9zm418-93q0 30-15 56t-49 34q-7 2-92 3h-42q-22 0-35-1h-13q-15-1-19-10-2-4-32-120 0-3-1-6l-31-126h81q81 0 93 2 60 10 107 58t48 110zm-54-315q0 44-23 73t-60 34q-6 1-83 1-118 0-119-1 0-2-17-73t-35-141l-18-70q0-4 12-4t81-2q89 0 96 1 62 7 114 58t52 124z"/><path id="e" d="M228 637q-34 0-36 4-1 2-1 8 0 24 11 33 2 1 15 1 54-3 127-3 141 0 162 3h12q6-6 6-9t-2-18q-5-15-9-19h-38q-69-1-81-9-7-4-14-28t-67-264q-16-65-34-138T252 88l-9-36q0-4 9-4t59-2h17q32 0 51 1t49 7 50 18 44 34 42 55q16 30 30 67t17 42q5 3 17 3h13q6-9 6-11t-20-59-44-120-26-74q-2-5-4-6t-16-3-43-1h-76q-65 0-124 1H116Q32 0 32 10q0 7 2 14 5 19 10 21 4 1 15 1h6q27 0 60 3 14 3 19 12 3 4 72 278t69 289q0 7-57 9z"/><path id="f" d="M11 1388v62h269V-949H11v62h207v2275H11z"/><path id="g" d="M55 642v6l4 11 7 7 5 2h637q15-8 15-20t-15-20H409V15q-7-13-18-15-4 0-7 1t-5 2-4 3-2 3-2 4-2 3v612H71q-1 0-4 2t-8 7z"/><path id="h" d="M630 29q0-20-21-20-5 0-22 16t-94 93L389 222 284 117Q178 13 175 11q-4-2-7-2-8 0-14 6t-7 14q0 7 14 22t94 95l104 104-104 104q-81 81-94 95t-14 22q0 9 6 14t15 5q5 0 7-1 3-2 109-106l105-105 104 104q77 77 94 93t22 16q21 0 21-20 0-7-10-18t-98-98L418 250l104-105q84-84 96-97t12-19z"/><path id="i" d="M39 168q0 57 19 104t49 78 67 52 70 31 63 9h3q45 0 78-22t33-65q0-90-111-118-49-13-134-14-37 0-38-2 0-2-6-35t-7-58q0-47 21-74t63-28 93 19 92 66q9 10 12 10 4 0 13-9t10-14-9-16-30-27-46-31-63-25-76-10q-79 0-122 53T39 168zm334 185q-6 52-68 52-33 0-61-14t-45-34-29-41-16-36-5-19q0-1 20-1 113 0 158 24t46 69z"/><path id="j" d="M21 287q1 6 3 16t12 38 20 47 33 37 46 17q36 0 60-18t30-34 6-21q0-2 1-2l11 11q61 64 139 64 54 0 87-27t34-79-38-157-38-127q0-26 17-26 6 0 9 1 29 5 52 38t35 80q2 8 20 8 20 0 20-8 0-1-4-15-8-29-22-57t-46-56-69-27q-47 0-68 27t-21 56q0 19 36 120t37 152q0 59-44 59h-5q-86 0-145-101l-7-12-33-134Q156 26 151 16q-13-27-43-27-13 0-21 6T76 7t-2 10q0 13 38 163t40 163q1 5 1 23 0 39-24 39-38 0-63-100-6-20-6-21-2-6-19-6H27q-6 6-6 9z"/><path id="k" d="M208 74q0-24 46-28 18 0 18-11 0-1-2-13-3-14-6-18t-13-4h-12q-10 0-34 1t-64 1Q70 2 50 0h-8q-7 7-7 11 2 27 13 35h14q70 3 102 50 6 6 181 305t178 303q7 12 24 12h25q6-9 6-10l28-323q28-323 30-326 5-11 65-11 25 0 25-10 0-2-3-14-3-15-5-18t-14-4h-14q-11 0-39 1t-73 1q-94 0-123-2h-12q-6 6-6 9t2 18q4 13 6 16l4 3h20q54 3 64 17l-12 150H283l-34-58q-41-69-41-81zm308 186q0 11-12 156t-14 146l-27-43q-16-27-63-107l-90-152 103-1q103 0 103 1z"/><path id="l" d="M308 24q59 0 108 52t50 121q0 63-52 87-106 27-136 37t-42 20q-60 42-60 121 0 61 32 111t65 75q29 25 70 40t64 16h18q96 0 139-64 1 0 13 13t26 29 20 22h4q3 0 5 1 13 0 13-7t-28-121-32-118-16-3q-20 0-20 9 0 6 1 10 0 3 1 19t2 26q0 34-9 59t-18 37-25 25q-36 21-82 21-57 0-106-46t-50-106q0-30 15-52t41-31q4-2 70-19t67-18q34-11 66-48t32-100q0-26-8-56-5-22-18-49t-36-59-66-60-94-38q-12-2-34-2-99 0-154 55l-10 11-28-31Q83-14 78-18t-13-4q-13 0-13 8 0 3 58 235 2 6 20 6h13q6-6 6-11 0-2-1-9t-4-21-2-33q2-39 18-66t43-40 52-18 53-5z"/></defs><g data-mml-node="math" fill="currentColor" stroke="currentColor" stroke-width="0"><g data-mml-node="msup"><g data-mml-node="TeXAtom"><g data-mml-node="mstyle"><g data-mml-node="mrow" fill="#02a0c6" stroke="#02a0c6"><use xlink:href="#a" data-mml-node="mo" transform="scale(1 -1)"/><g data-mml-node="mtable"><g data-mml-node="mtr"><g data-mml-node="mtd"><g fill="#44a8fc" stroke="#44a8fc" data-mml-node="mstyle"><use xlink:href="#b" data-mml-node="mi" transform="matrix(1 0 0 -1 615 -682.3)"/><use xlink:href="#c" data-mml-node="mi" transform="matrix(1 0 0 -1 1378 -682.3)"/></g></g></g><g data-mml-node="mtr"><g data-mml-node="mtd"><g fill="violet" stroke="violet" data-mml-node="mstyle"><use xlink:href="#d" data-mml-node="mi" transform="matrix(1 0 0 -1 528 682.3)"/><use xlink:href="#e" data-mml-node="mi" transform="matrix(1 0 0 -1 1287 682.3)"/></g></g></g><path stroke="none" d="M528-250h1440" class="mjx-solid" data-line="h"/></g><use xlink:href="#f" data-mml-node="mo" transform="matrix(1 0 0 -1 1968 0)"/></g></g></g><g data-mml-node="TeXAtom"><g data-mml-node="mstyle"><use xlink:href="#g" data-mml-node="mi" transform="matrix(.707 0 0 -.707 2496 -1176.6)" fill="#02a0c6" stroke="#02a0c6"/></g></g></g><g fill="#02a0c6" stroke="#02a0c6" data-mml-node="mstyle"><use xlink:href="#h" data-mml-node="mo" transform="matrix(1 0 0 -1 2887.4 0)"/><g data-mml-node="TeXAtom"><g data-mml-node="mrow"><use xlink:href="#a" data-mml-node="mo" transform="matrix(1 0 0 -1 3887.6 0)"/><g data-mml-node="mtable"><g data-mml-node="mtr"><g data-mml-node="mtd"><g fill="#44a8fc" stroke="#44a8fc" data-mml-node="mstyle"><use xlink:href="#i" data-mml-node="mi" transform="matrix(1 0 0 -1 4564.1 -682.3)"/><use xlink:href="#j" data-mml-node="mi" transform="matrix(1 0 0 -1 5030.1 -682.3)"/></g></g></g><g data-mml-node="mtr"><g data-mml-node="mtd"><g fill="violet" stroke="violet" data-mml-node="mstyle"><use xlink:href="#k" data-mml-node="mi" transform="matrix(1 0 0 -1 4415.6 682.3)"/><use xlink:href="#l" data-mml-node="mi" transform="matrix(1 0 0 -1 5165.6 682.3)"/></g></g></g><path stroke="none" d="M4415.6-250h1363" class="mjx-solid" data-line="h"/></g><use xlink:href="#f" data-mml-node="mo" transform="matrix(1 0 0 -1 5778.6 0)"/></g></g></g></g></svg>

<svg xmlns="http://www.w3.org/2000/svg" role="img" xmlns:xlink="http://www.w3.org/1999/xlink" viewBox="128.80 -1766.20 6042.40 2827.40"><title>OpenBLAS logo</title><defs><path id="a" d="M247 -949V1450H516V1388H309V-887H516V-949H247Z"/><path id="b" d="M740 435Q740 320 676 213T511 42T304 -22Q207 -22 138 35T51 201Q50 209 50 244Q50 346 98 438T227 601Q351 704 476 704Q514 704 524 703Q621 689 680 617T740 435ZM637 476Q637 565 591 615T476 665Q396 665 322 605Q242 542 200 428T157 216Q157 126 200 73T314 19Q404 19 485 98T608 313Q637 408 637 476Z"/><path id="c" d="M23 287Q24 290 25 295T30 317T40 348T55 381T75 411T101 433T134 442Q209 442 230 378L240 387Q302 442 358 442Q423 442 460 395T497 281Q497 173 421 82T249 -10Q227 -10 210 -4Q199 1 187 11T168 28L161 36Q160 35 139 -51T118 -138Q118 -144 126 -145T163 -148H188Q194 -155 194 -157T191 -175Q188 -187 185 -190T172 -194Q170 -194 161 -194T127 -193T65 -192Q-5 -192 -24 -194H-32Q-39 -187 -39 -183Q-37 -156 -26 -148H-6Q28 -147 33 -136Q36 -130 94 103T155 350Q156 355 156 364Q156 405 131 405Q109 405 94 377T71 316T59 280Q57 278 43 278H29Q23 284 23 287ZM178 102Q200 26 252 26Q282 26 310 49T356 107Q374 141 392 215T411 325V331Q411 405 350 405Q339 405 328 402T306 393T286 380T269 365T254 350T243 336T235 326L232 322Q232 321 229 308T218 264T204 212Q178 106 178 102Z"/><path id="d" d="M231 637Q204 637 199 638T194 649Q194 676 205 682Q206 683 335 683Q594 683 608 681Q671 671 713 636T756 544Q756 480 698 429T565 360L555 357Q619 348 660 311T702 219Q702 146 630 78T453 1Q446 0 242 0Q42 0 39 2Q35 5 35 10Q35 17 37 24Q42 43 47 45Q51 46 62 46H68Q95 46 128 49Q142 52 147 61Q150 65 219 339T288 628Q288 635 231 637ZM649 544Q649 574 634 600T585 634Q578 636 493 637Q473 637 451 637T416 636H403Q388 635 384 626Q382 622 352 506Q352 503 351 500L320 374H401Q482 374 494 376Q554 386 601 434T649 544ZM595 229Q595 273 572 302T512 336Q506 337 429 337Q311 337 310 336Q310 334 293 263T258 122L240 52Q240 48 252 48T333 46Q422 46 429 47Q491 54 543 105T595 229Z"/><path id="e" d="M228 637Q194 637 192 641Q191 643 191 649Q191 673 202 682Q204 683 217 683Q271 680 344 680Q485 680 506 683H518Q524 677 524 674T522 656Q517 641 513 637H475Q406 636 394 628Q387 624 380 600T313 336Q297 271 279 198T252 88L243 52Q243 48 252 48T311 46H328Q360 46 379 47T428 54T478 72T522 106T564 161Q580 191 594 228T611 270Q616 273 628 273H641Q647 264 647 262T627 203T583 83T557 9Q555 4 553 3T537 0T494 -1Q483 -1 418 -1T294 0H116Q32 0 32 10Q32 17 34 24Q39 43 44 45Q48 46 59 46H65Q92 46 125 49Q139 52 144 61Q147 65 216 339T285 628Q285 635 228 637Z"/><path id="f" d="M11 1388V1450H280V-949H11V-887H218V1388H11Z"/><path id="g" d="M55 642T55 648T59 659T66 666T71 668H708Q723 660 723 648T708 628H409V15Q402 2 391 0Q387 0 384 1T379 3T375 6T373 9T371 13T369 16V628H71Q70 628 67 630T59 637Z"/><path id="h" d="M630 29Q630 9 609 9Q604 9 587 25T493 118L389 222L284 117Q178 13 175 11Q171 9 168 9Q160 9 154 15T147 29Q147 36 161 51T255 146L359 250L255 354Q174 435 161 449T147 471Q147 480 153 485T168 490Q173 490 175 489Q178 487 284 383L389 278L493 382Q570 459 587 475T609 491Q630 491 630 471Q630 464 620 453T522 355L418 250L522 145Q606 61 618 48T630 29Z"/><path id="i" d="M39 168Q39 225 58 272T107 350T174 402T244 433T307 442H310Q355 442 388 420T421 355Q421 265 310 237Q261 224 176 223Q139 223 138 221Q138 219 132 186T125 128Q125 81 146 54T209 26T302 45T394 111Q403 121 406 121Q410 121 419 112T429 98T420 82T390 55T344 24T281 -1T205 -11Q126 -11 83 42T39 168ZM373 353Q367 405 305 405Q272 405 244 391T199 357T170 316T154 280T149 261Q149 260 169 260Q282 260 327 284T373 353Z"/><path id="j" d="M21 287Q22 293 24 303T36 341T56 388T89 425T135 442Q171 442 195 424T225 390T231 369Q231 367 232 367L243 378Q304 442 382 442Q436 442 469 415T503 336T465 179T427 52Q427 26 444 26Q450 26 453 27Q482 32 505 65T540 145Q542 153 560 153Q580 153 580 145Q580 144 576 130Q568 101 554 73T508 17T439 -10Q392 -10 371 17T350 73Q350 92 386 193T423 345Q423 404 379 404H374Q288 404 229 303L222 291L189 157Q156 26 151 16Q138 -11 108 -11Q95 -11 87 -5T76 7T74 17Q74 30 112 180T152 343Q153 348 153 366Q153 405 129 405Q91 405 66 305Q60 285 60 284Q58 278 41 278H27Q21 284 21 287Z"/><path id="k" d="M208 74Q208 50 254 46Q272 46 272 35Q272 34 270 22Q267 8 264 4T251 0Q249 0 239 0T205 1T141 2Q70 2 50 0H42Q35 7 35 11Q37 38 48 46H62Q132 49 164 96Q170 102 345 401T523 704Q530 716 547 716H555H572Q578 707 578 706L606 383Q634 60 636 57Q641 46 701 46Q726 46 726 36Q726 34 723 22Q720 7 718 4T704 0Q701 0 690 0T651 1T578 2Q484 2 455 0H443Q437 6 437 9T439 27Q443 40 445 43L449 46H469Q523 49 533 63L521 213H283L249 155Q208 86 208 74ZM516 260Q516 271 504 416T490 562L463 519Q447 492 400 412L310 260L413 259Q516 259 516 260Z"/><path id="l" d="M308 24Q367 24 416 76T466 197Q466 260 414 284Q308 311 278 321T236 341Q176 383 176 462Q176 523 208 573T273 648Q302 673 343 688T407 704H418H425Q521 704 564 640Q565 640 577 653T603 682T623 704Q624 704 627 704T632 705Q645 705 645 698T617 577T585 459T569 456Q549 456 549 465Q549 471 550 475Q550 478 551 494T553 520Q553 554 544 579T526 616T501 641Q465 662 419 662Q362 662 313 616T263 510Q263 480 278 458T319 427Q323 425 389 408T456 390Q490 379 522 342T554 242Q554 216 546 186Q541 164 528 137T492 78T426 18T332 -20Q320 -22 298 -22Q199 -22 144 33L134 44L106 13Q83 -14 78 -18T65 -22Q52 -22 52 -14Q52 -11 110 221Q112 227 130 227H143Q149 221 149 216Q149 214 148 207T144 186T142 153Q144 114 160 87T203 47T255 29T308 24Z"/></defs><g fill="currentColor" stroke="currentColor" stroke-width="0"><g data-mml-node="math"><g data-mml-node="msup"><g data-mml-node="TeXAtom"><g fill="#02a0c6" stroke="#02a0c6" data-mml-node="mstyle"><g data-mml-node="mrow"><g data-mml-node="mo" transform="scale(1 -1)"><use xlink:href="#a"/></g><g data-mml-node="mtable"><g data-mml-node="mtr"><g data-mml-node="mtd"><g fill="#44a8fc" stroke="#44a8fc" data-mml-node="mstyle"><g data-mml-node="mi" transform="matrix(1 0 0 -1 615 -682.3)"><use xlink:href="#b"/></g><g data-mml-node="mi" transform="matrix(1 0 0 -1 1378 -682.3)"><use xlink:href="#c"/></g></g></g></g><g data-mml-node="mtr"><g data-mml-node="mtd"><g fill="violet" stroke="violet" data-mml-node="mstyle"><g data-mml-node="mi" transform="matrix(1 0 0 -1 528 682.3)"><use xlink:href="#d"/></g><g data-mml-node="mi" transform="matrix(1 0 0 -1 1287 682.3)"><use xlink:href="#e"/></g></g></g></g><path stroke="none" d="M0 250L1440 250" class="mjx-solid" data-line="h" transform="matrix(1 0 0 -1 528 0)"/></g><g data-mml-node="mo" transform="matrix(1 0 0 -1 1968 0)"><use xlink:href="#f"/></g></g></g></g><g data-mml-node="TeXAtom"><g fill="#02a0c6" stroke="#02a0c6" data-mml-node="mstyle"><g data-mml-node="mi" transform="matrix(.707 0 0 -.707 2496 -1176.6)"><use xlink:href="#g"/></g></g></g></g><g fill="#02a0c6" stroke="#02a0c6" data-mml-node="mstyle"><g data-mml-node="mo" transform="matrix(1 0 0 -1 2887.4 0)"><use xlink:href="#h"/></g><g data-mml-node="TeXAtom"><g data-mml-node="mrow"><g data-mml-node="mo" transform="matrix(1 0 0 -1 3887.6 0)"><use xlink:href="#a"/></g><g data-mml-node="mtable"><g data-mml-node="mtr"><g data-mml-node="mtd"><g fill="#44a8fc" stroke="#44a8fc" data-mml-node="mstyle"><g data-mml-node="mi" transform="matrix(1 0 0 -1 4564.1 -682.3)"><use xlink:href="#i"/></g><g data-mml-node="mi" transform="matrix(1 0 0 -1 5030.1 -682.3)"><use xlink:href="#j"/></g></g></g></g><g data-mml-node="mtr"><g data-mml-node="mtd"><g fill="violet" stroke="violet" data-mml-node="mstyle"><g data-mml-node="mi" transform="matrix(1 0 0 -1 4415.6 682.3)"><use xlink:href="#k"/></g><g data-mml-node="mi" transform="matrix(1 0 0 -1 5165.6 682.3)"><use xlink:href="#l"/></g></g></g></g><path stroke="none" d="M0 250L1363 250" class="mjx-solid" data-line="h" transform="matrix(1 0 0 -1 4415.6 0)"/></g><g data-mml-node="mo" transform="matrix(1 0 0 -1 5778.6 0)"><use xlink:href="#f"/></g></g></g></g></g></g></svg>
